X:89
T: RINGLE RINGLE REIHE
N: K2063
O: Europa, Mitteleuropa, Deutschland, Darmstadt
R: Kinder - Lied, Reigen, Tanz - Spiel
M: 2/4
L: 1/16
K: F
 | c2c2d2d2 | c4A2
F2 | c2c2ddd2 | c4A2
F2 | c2c2ded2 | c2c2A2
F2 | c2c2d2d2 | c2c2c2z2

